static/images/nextcloud.svg

<?xml version="1.0" encoding="UTF-8"?>
<svg xmlns="http://www.w3.org/2000/svg" xmlns:xlink="http://www.w3.org/1999/xlink" width="313pt" height="313pt" viewBox="0 0 313 313" version="1.1">
<g id="surface657">
<path style=" stroke:none;fill-rule:nonzero;fill:rgb(0%,50.980395%,78.823531%);fill-opacity:1;" d="M 156.738281 53.949219 C 124.289062 53.949219 96.785156 75.953125 88.269531 105.753906 C 80.863281 89.9375 64.804688 78.867188 46.324219 78.867188 C 20.902344 78.867188 0 99.769531 0 125.199219 C 0 150.613281 20.902344 171.539062 46.324219 171.539062 C 64.804688 171.539062 80.867188 160.460938 88.269531 144.644531 C 96.785156 174.445312 124.289062 196.453125 156.738281 196.453125 C 188.933594 196.453125 216.292969 174.769531 225.039062 145.304688 C 232.578125 160.757812 248.4375 171.539062 266.660156 171.539062 C 292.09375 171.539062 313 150.625 313 125.199219 C 313 99.769531 292.09375 78.867188 266.660156 78.867188 C 248.4375 78.867188 232.578125 89.636719 225.039062 105.074219 C 216.292969 75.609375 188.933594 53.945312 156.738281 53.945312 Z M 156.738281 81.144531 C 181.226562 81.144531 200.789062 100.707031 200.789062 125.199219 C 200.789062 149.691406 181.226562 169.253906 156.738281 169.253906 C 132.242188 169.253906 112.679688 149.691406 112.679688 125.199219 C 112.679688 100.707031 132.242188 81.144531 156.738281 81.144531 Z M 46.3125 106.066406 C 57.054688 106.066406 65.460938 114.464844 65.460938 125.199219 C 65.460938 135.929688 57.054688 144.34375 46.3125 144.34375 C 35.597656 144.34375 27.191406 135.929688 27.191406 125.199219 C 27.191406 114.460938 35.597656 106.066406 46.3125 106.066406 Z M 266.667969 106.066406 C 277.394531 106.066406 285.808594 114.464844 285.808594 125.199219 C 285.808594 135.929688 277.394531 144.34375 266.667969 144.34375 C 255.929688 144.34375 247.535156 135.929688 247.535156 125.199219 C 247.535156 114.460938 255.929688 106.066406 266.667969 106.066406 Z M 266.667969 106.066406 "/>
<path style=" stroke:none;fill-rule:nonzero;fill:rgb(0%,50.980395%,78.823531%);fill-opacity:1;" d="M 80 229.175781 C 87.621094 229.175781 91.890625 234.597656 91.890625 242.75 C 91.890625 243.523438 91.238281 244.179688 90.472656 244.179688 L 69.910156 244.179688 C 70.042969 251.40625 75.074219 255.546875 80.894531 255.546875 C 84.515625 255.546875 87.105469 253.996094 88.398438 252.960938 C 89.179688 252.445312 89.820312 252.5625 90.207031 253.355469 L 90.59375 253.996094 C 90.984375 254.644531 90.863281 255.289062 90.207031 255.804688 C 88.648438 256.976562 85.296875 258.910156 80.773438 258.910156 C 72.371094 258.910156 65.90625 252.839844 65.90625 244.039062 C 66.027344 234.738281 72.246094 229.175781 80 229.175781 Z M 87.878906 241.324219 C 87.621094 235.386719 83.996094 232.40625 79.863281 232.40625 C 75.074219 232.40625 70.945312 235.507812 70.042969 241.324219 Z M 87.878906 241.324219 "/>
<path style=" stroke:none;fill-rule:nonzero;fill:rgb(0%,50.980395%,78.823531%);fill-opacity:1;" d="M 130.707031 233.320312 L 130.707031 223.375 C 130.707031 222.464844 131.21875 221.945312 132.136719 221.945312 L 133.160156 221.945312 C 134.070312 221.945312 134.453125 222.464844 134.453125 223.375 L 134.453125 230.097656 L 140.269531 230.097656 C 141.183594 230.097656 141.6875 230.617188 141.6875 231.515625 L 141.6875 231.902344 C 141.6875 232.8125 141.183594 233.191406 140.269531 233.191406 L 134.453125 233.191406 L 134.453125 247.410156 C 134.453125 254.007812 138.464844 254.792969 140.664062 254.917969 C 141.828125 255.046875 142.210938 255.308594 142.210938 256.335938 L 142.210938 257.109375 C 142.210938 258.019531 141.828125 258.402344 140.664062 258.402344 C 134.453125 258.402344 130.707031 254.65625 130.707031 247.929688 Z M 130.707031 233.320312 "/>
<path style=" stroke:none;fill-rule:nonzero;fill:rgb(0%,50.980395%,78.823531%);fill-opacity:1;" d="M 160.316406 229.175781 C 165.214844 229.175781 168.332031 231.238281 169.75 232.40625 C 170.390625 232.914062 170.527344 233.570312 169.871094 234.347656 L 169.488281 234.988281 C 168.972656 235.773438 168.332031 235.773438 167.546875 235.25 C 166.25 234.347656 163.796875 232.667969 160.4375 232.667969 C 154.242188 232.667969 149.320312 237.332031 149.320312 244.179688 C 149.320312 250.898438 154.242188 255.546875 160.4375 255.546875 C 164.445312 255.546875 167.160156 253.730469 168.453125 252.5625 C 169.226562 252.054688 169.75 252.183594 170.261719 252.960938 L 170.644531 253.476562 C 171.03125 254.242188 170.90625 254.773438 170.261719 255.414062 C 168.84375 256.585938 165.355469 259.035156 160.171875 259.035156 C 151.777344 259.035156 145.308594 252.960938 145.308594 244.179688 C 145.445312 235.386719 151.90625 229.175781 160.316406 229.175781 Z M 160.316406 229.175781 "/>
<path style=" stroke:none;fill-rule:nonzero;fill:rgb(0%,50.980395%,78.823531%);fill-opacity:1;" d="M 177.503906 220 C 177.503906 219.089844 176.988281 218.582031 177.890625 218.582031 L 178.929688 218.582031 C 179.824219 218.582031 181.25 219.089844 181.25 220 L 181.25 250.898438 C 181.25 254.507812 182.933594 254.902344 184.226562 255.035156 C 184.867188 255.035156 185.382812 255.417969 185.382812 256.328125 L 185.382812 257.226562 C 185.382812 258.132812 185.003906 258.65625 183.960938 258.65625 C 181.636719 258.65625 177.503906 257.871094 177.503906 251.671875 Z M 177.503906 220 "/>
<path style=" stroke:none;fill-rule:nonzero;fill:rgb(0%,50.980395%,78.823531%);fill-opacity:1;" d="M 203.996094 229.175781 C 212.273438 229.175781 218.996094 235.507812 218.996094 243.914062 C 218.996094 252.445312 212.273438 258.910156 203.996094 258.910156 C 195.726562 258.910156 189.003906 252.445312 189.003906 243.914062 C 189.003906 235.507812 195.726562 229.175781 203.996094 229.175781 Z M 203.996094 255.546875 C 210.070312 255.546875 214.988281 250.632812 214.988281 243.914062 C 214.988281 237.449219 210.070312 232.667969 203.996094 232.667969 C 197.921875 232.667969 192.882812 237.582031 192.882812 243.914062 C 193.011719 250.503906 197.921875 255.546875 203.996094 255.546875 Z M 203.996094 255.546875 "/>
<path style=" stroke:none;fill-rule:nonzero;fill:rgb(0%,50.980395%,78.823531%);fill-opacity:1;" d="M 268.515625 229.175781 C 275.363281 229.175781 277.8125 234.859375 277.8125 234.859375 L 277.945312 234.859375 C 277.945312 234.859375 277.8125 233.96875 277.8125 232.667969 L 277.8125 219.878906 C 277.8125 218.964844 277.433594 218.453125 278.34375 218.453125 L 279.371094 218.453125 C 280.28125 218.453125 281.691406 218.964844 281.691406 219.878906 L 281.691406 256.714844 C 281.691406 257.609375 281.308594 258.128906 280.402344 258.128906 L 279.496094 258.128906 C 278.597656 258.128906 278.082031 257.746094 278.082031 256.835938 L 278.082031 254.644531 C 278.082031 253.609375 278.34375 252.839844 278.34375 252.839844 L 278.203125 252.839844 C 278.203125 252.839844 275.753906 258.773438 268.386719 258.773438 C 260.75 258.773438 255.96875 252.703125 255.96875 243.914062 C 255.707031 235.117188 261.011719 229.175781 268.515625 229.175781 Z M 268.640625 255.546875 C 273.425781 255.546875 277.8125 252.183594 277.8125 244.039062 C 277.8125 238.222656 274.84375 232.667969 268.765625 232.667969 C 263.722656 232.667969 259.589844 236.800781 259.589844 244.039062 C 259.730469 251.027344 263.339844 255.546875 268.640625 255.546875 Z M 268.640625 255.546875 "/>
<path style=" stroke:none;fill-rule:nonzero;fill:rgb(0%,50.980395%,78.823531%);fill-opacity:1;" d="M 32.589844 258.265625 L 33.625 258.265625 C 34.53125 258.265625 35.042969 257.742188 35.042969 256.835938 L 35.042969 229.078125 C 35.042969 224.683594 39.828125 221.550781 45.25 221.550781 C 50.691406 221.550781 55.46875 224.683594 55.46875 229.078125 L 55.46875 256.835938 C 55.46875 257.742188 55.996094 258.265625 56.886719 258.265625 L 57.929688 258.265625 C 58.835938 258.265625 59.21875 257.742188 59.21875 256.835938 L 59.21875 228.921875 C 59.21875 221.539062 51.851562 217.929688 45.128906 217.929688 C 38.664062 217.929688 31.300781 221.539062 31.300781 228.921875 L 31.300781 256.835938 C 31.300781 257.742188 31.679688 258.265625 32.589844 258.265625 Z M 32.589844 258.265625 "/>
<path style=" stroke:none;fill-rule:nonzero;fill:rgb(0%,50.980395%,78.823531%);fill-opacity:1;" d="M 248.347656 229.820312 L 247.3125 229.820312 C 246.410156 229.820312 245.894531 230.34375 245.894531 231.234375 L 245.894531 246.882812 C 245.894531 251.28125 243.042969 255.289062 237.488281 255.289062 C 232.058594 255.289062 229.082031 251.28125 229.082031 246.882812 L 229.082031 231.234375 C 229.082031 230.34375 228.5625 229.820312 227.660156 229.820312 L 226.621094 229.820312 C 225.726562 229.820312 225.335938 230.34375 225.335938 231.234375 L 225.335938 247.914062 C 225.335938 255.289062 230.765625 258.90625 237.488281 258.90625 C 244.214844 258.90625 249.636719 255.289062 249.636719 247.914062 L 249.636719 231.234375 C 249.765625 230.34375 249.253906 229.820312 248.347656 229.820312 Z M 248.347656 229.820312 "/>
<path style=" stroke:none;fill-rule:nonzero;fill:rgb(0%,50.980395%,78.823531%);fill-opacity:1;" d="M 120.367188 229.625 C 120.058594 229.671875 119.75 229.882812 119.46875 230.242188 L 114.234375 236.472656 L 110.3125 241.132812 L 104.390625 234.070312 L 101.175781 230.242188 C 100.875 229.882812 100.554688 229.703125 100.207031 229.667969 C 99.867188 229.640625 99.503906 229.761719 99.171875 230.058594 L 98.375 230.714844 C 97.671875 231.308594 97.71875 231.953125 98.300781 232.636719 L 103.535156 238.878906 L 107.867188 244.042969 L 101.519531 251.617188 C 101.511719 251.632812 101.511719 251.632812 101.511719 251.640625 L 98.300781 255.460938 C 97.71875 256.148438 97.78125 256.878906 98.46875 257.460938 L 99.261719 258.128906 C 99.960938 258.710938 100.59375 258.5625 101.175781 257.871094 L 106.402344 251.632812 L 110.3125 246.972656 L 116.246094 254.027344 C 116.246094 254.027344 116.253906 254.027344 116.253906 254.046875 L 119.46875 257.871094 C 120.046875 258.5625 120.773438 258.617188 121.472656 258.035156 L 122.265625 257.382812 C 122.949219 256.800781 122.910156 256.148438 122.339844 255.460938 L 117.105469 249.222656 L 112.757812 244.050781 L 119.125 236.480469 C 119.125 236.472656 119.125 236.472656 119.128906 236.457031 L 122.339844 232.636719 C 122.910156 231.953125 122.855469 231.21875 122.15625 230.636719 L 121.359375 229.976562 C 121.023438 229.671875 120.691406 229.570312 120.367188 229.625 Z M 120.367188 229.625 "/>
</g>
</svg>

<?xml version="1.0" encoding="UTF-8"?>
<svg width="313pt" height="313pt" version="1.1" viewBox="0 0 313 313" xmlns="http://www.w3.org/2000/svg">
 <g id="surface657" fill="#0082c9">
  <path d="m156.74 53.949c-32.449 0-59.953 22.004-68.469 51.805-7.4062-15.816-23.465-26.887-41.945-26.887-25.422 0-46.324 20.902-46.324 46.332 0 25.414 20.902 46.34 46.324 46.34 18.48 0 34.543-11.078 41.945-26.895 8.5156 29.801 36.02 51.809 68.469 51.809 32.195 0 59.555-21.684 68.301-51.148 7.5391 15.453 23.398 26.234 41.621 26.234 25.434 0 46.34-20.914 46.34-46.34 0-25.43-20.906-46.332-46.34-46.332-18.223 0-34.082 10.77-41.621 26.207-8.7461-29.465-36.105-51.129-68.301-51.129zm0 27.195c24.488 0 44.051 19.562 44.051 44.055 0 24.492-19.562 44.055-44.051 44.055-24.496 0-44.059-19.562-44.059-44.055 0-24.492 19.562-44.055 44.059-44.055zm-110.43 24.922c10.742 0 19.148 8.3984 19.148 19.133 0 10.73-8.4062 19.145-19.148 19.145-10.715 0-19.121-8.4141-19.121-19.145 0-10.738 8.4062-19.133 19.121-19.133zm220.36 0c10.727 0 19.141 8.3984 19.141 19.133 0 10.73-8.4141 19.145-19.141 19.145-10.738 0-19.133-8.4141-19.133-19.145 0-10.738 8.3945-19.133 19.133-19.133z"/>
  <path d="m80 229.18c7.6211 0 11.891 5.4219 11.891 13.574 0 0.77344-0.65234 1.4297-1.418 1.4297h-20.562c0.13281 7.2266 5.1641 11.367 10.984 11.367 3.6211 0 6.2109-1.5508 7.5039-2.5859 0.78125-0.51563 1.4219-0.39844 1.8086 0.39453l0.38672 0.64062c0.39062 0.64844 0.26953 1.293-0.38672 1.8086-1.5586 1.1719-4.9102 3.1055-9.4336 3.1055-8.4023 0-14.867-6.0703-14.867-14.871 0.12109-9.3008 6.3398-14.863 14.094-14.863zm7.8789 12.148c-0.25781-5.9375-3.8828-8.918-8.0156-8.918-4.7891 0-8.918 3.1016-9.8203 8.918z"/>
  <path d="m130.71 233.32v-9.9453c0-0.91016 0.51172-1.4297 1.4297-1.4297h1.0234c0.91016 0 1.293 0.51953 1.293 1.4297v6.7227h5.8164c0.91406 0 1.418 0.51953 1.418 1.418v0.38672c0 0.91016-0.50391 1.2891-1.418 1.2891h-5.8164v14.219c0 6.5977 4.0117 7.3828 6.2109 7.5078 1.1641 0.12891 1.5469 0.39062 1.5469 1.418v0.77344c0 0.91016-0.38281 1.293-1.5469 1.293-6.2109 0-9.957-3.7461-9.957-10.473z"/>
  <path d="m160.32 229.18c4.8984 0 8.0156 2.0625 9.4336 3.2305 0.64062 0.50781 0.77734 1.1641 0.12109 1.9414l-0.38281 0.64062c-0.51562 0.78516-1.1562 0.78516-1.9414 0.26172-1.2969-0.90234-3.75-2.582-7.1094-2.582-6.1953 0-11.117 4.6641-11.117 11.512 0 6.7188 4.9219 11.367 11.117 11.367 4.0078 0 6.7227-1.8164 8.0156-2.9844 0.77344-0.50781 1.2969-0.37891 1.8086 0.39844l0.38281 0.51562c0.38672 0.76563 0.26172 1.2969-0.38281 1.9375-1.418 1.1719-4.9062 3.6211-10.09 3.6211-8.3945 0-14.863-6.0742-14.863-14.855 0.13672-8.793 6.5977-15.004 15.008-15.004z"/>
  <path d="m177.5 220c0-0.91016-0.51562-1.418 0.38672-1.418h1.0391c0.89453 0 2.3203 0.50781 2.3203 1.418v30.898c0 3.6094 1.6836 4.0039 2.9766 4.1367 0.64063 0 1.1562 0.38281 1.1562 1.293v0.89844c0 0.90625-0.37891 1.4297-1.4219 1.4297-2.3242 0-6.457-0.78516-6.457-6.9844z"/>
  <path d="m204 229.18c8.2773 0 15 6.332 15 14.738 0 8.5312-6.7227 14.996-15 14.996-8.2695 0-14.992-6.4648-14.992-14.996 0-8.4062 6.7227-14.738 14.992-14.738zm0 26.371c6.0742 0 10.992-4.9141 10.992-11.633 0-6.4648-4.918-11.246-10.992-11.246-6.0742 0-11.113 4.9141-11.113 11.246 0.12891 6.5898 5.0391 11.633 11.113 11.633z"/>
  <path d="m268.52 229.18c6.8477 0 9.2969 5.6836 9.2969 5.6836h0.13281s-0.13281-0.89062-0.13281-2.1914v-12.789c0-0.91406-0.37891-1.4258 0.53125-1.4258h1.0273c0.91016 0 2.3203 0.51172 2.3203 1.4258v36.836c0 0.89453-0.38281 1.4141-1.2891 1.4141h-0.90625c-0.89844 0-1.4141-0.38281-1.4141-1.293v-2.1914c0-1.0352 0.26172-1.8047 0.26172-1.8047h-0.14062s-2.4492 5.9336-9.8164 5.9336c-7.6367 0-12.418-6.0703-12.418-14.859-0.26172-8.7969 5.043-14.738 12.547-14.738zm0.125 26.371c4.7852 0 9.1719-3.3633 9.1719-11.508 0-5.8164-2.9688-11.371-9.0469-11.371-5.043 0-9.1758 4.1328-9.1758 11.371 0.14062 6.9883 3.75 11.508 9.0508 11.508z"/>
  <path d="m32.59 258.27h1.0352c0.90625 0 1.418-0.52344 1.418-1.4297v-27.758c0-4.3945 4.7852-7.5273 10.207-7.5273 5.4414 0 10.219 3.1328 10.219 7.5273v27.758c0 0.90625 0.52734 1.4297 1.418 1.4297h1.043c0.90625 0 1.2891-0.52344 1.2891-1.4297v-27.914c0-7.3828-7.3672-10.992-14.09-10.992-6.4648 0-13.828 3.6094-13.828 10.992v27.914c0 0.90625 0.37891 1.4297 1.2891 1.4297z"/>
  <path d="m248.35 229.82h-1.0352c-0.90234 0-1.418 0.52344-1.418 1.4141v15.648c0 4.3984-2.8516 8.4062-8.4062 8.4062-5.4297 0-8.4062-4.0078-8.4062-8.4062v-15.648c0-0.89062-0.51953-1.4141-1.4219-1.4141h-1.0391c-0.89453 0-1.2852 0.52344-1.2852 1.4141v16.68c0 7.375 5.4297 10.992 12.152 10.992 6.7266 0 12.148-3.6172 12.148-10.992v-16.68c0.12891-0.89062-0.38281-1.4141-1.2891-1.4141z"/>
  <path d="m120.37 229.62c-0.30859 0.046875-0.61719 0.25781-0.89844 0.61719l-5.2344 6.2305-3.9219 4.6602-5.9219-7.0625-3.2148-3.8281c-0.30078-0.35938-0.62109-0.53906-0.96875-0.57422-0.33984-0.027344-0.70312 0.09375-1.0352 0.39062l-0.79688 0.65625c-0.70312 0.59375-0.65625 1.2383-0.074219 1.9219l5.2344 6.2422 4.332 5.1641-6.3477 7.5742c-0.007812 0.015624-0.007812 0.015624-0.007812 0.023437l-3.2109 3.8203c-0.58203 0.6875-0.51953 1.418 0.16797 2l0.79297 0.66797c0.69922 0.58203 1.332 0.43359 1.9141-0.25781l5.2266-6.2383 3.9102-4.6602 5.9336 7.0547s0.007812 0 0.007812 0.019531l3.2148 3.8242c0.57812 0.69141 1.3047 0.74609 2.0039 0.16406l0.79297-0.65234c0.68359-0.58203 0.64453-1.2344 0.074219-1.9219l-5.2344-6.2383-4.3477-5.1719 6.3672-7.5703c0-0.007813 0-0.007813 0.003906-0.023438l3.2109-3.8203c0.57031-0.68359 0.51562-1.418-0.18359-2l-0.79688-0.66016c-0.33594-0.30469-0.66797-0.40625-0.99219-0.35156z"/>
 </g>
</svg>
